build/images/svg/share.svg

<svg width="8" height="12" viewBox="0 0 8 12" fill="none" xmlns="http://www.w3.org/2000/svg">
  <path fill-rule="evenodd" clip-rule="evenodd" d="M3.97779 0.119463C3.9851 0.118455 3.99241 0.117447 3.99997 0.117447L4.00004 0.117511H4.00407H4.01617C4.02574 0.117511 4.03532 0.119024 4.04439 0.121544C6.22581 0.144253 8.00001 1.80258 8.00001 3.85948C8.00001 4.52981 7.80495 5.15885 7.47581 5.70219V5.70622C7.47228 5.71429 7.46825 5.72235 7.46372 5.73041V5.72991C7.46306 5.7309 7.46218 5.73167 7.46124 5.73251C7.46073 5.73296 7.46021 5.73342 7.45968 5.73394V5.73798H7.45565C7.45464 5.74251 7.45313 5.74654 7.45162 5.75057L7.45162 5.75058L4.14117 11.1699C4.11546 11.2118 4.06959 11.2375 4.0202 11.2375C3.9708 11.2375 3.92494 11.2118 3.89923 11.1699L0.548394 5.75058C0.547735 5.74959 0.546861 5.74882 0.545913 5.74798C0.54541 5.74753 0.544886 5.74707 0.544361 5.74654C0.539825 5.73999 0.535793 5.73344 0.532265 5.72638C0.530752 5.72235 0.52924 5.71832 0.528232 5.71429V5.71025C0.195561 5.16483 0 4.53331 0 3.85941C0 1.80238 1.77419 0.14416 3.95561 0.121479C3.96317 0.121479 3.97048 0.120471 3.97779 0.119463ZM6.16926 4.00854C6.16926 2.81154 5.19704 1.83925 3.99997 1.83925C2.80296 1.83925 1.83068 2.81154 1.83068 4.00854C1.83068 5.20555 2.80296 6.17783 3.99997 6.17783C5.19697 6.17783 6.16926 5.20555 6.16926 4.00854Z" fill="black"/>
</svg>

<svg width="8" height="12" fill="none" xmlns="http://www.w3.org/2000/svg"><path fill-rule="evenodd" clip-rule="evenodd" d="M3.978.12A.054.054 0 014 .116h.016c.01 0 .02.002.028.005C6.226.144 8 1.802 8 3.859c0 .67-.195 1.3-.524 1.843v.004a.271.271 0 01-.012.024l-.003.003H7.46v.005h-.004l-.004.013-3.31 5.419a.142.142 0 01-.243 0L.55 5.75l-.003-.002-.002-.001a.164.164 0 01-.012-.02.113.113 0 01-.004-.013V5.71A3.543 3.543 0 010 3.86C0 1.801 1.774.143 3.956.12c.007 0 .014 0 .022-.002zm2.191 3.889A2.17 2.17 0 004 1.839a2.17 2.17 0 00-2.17 2.17A2.17 2.17 0 004 6.178a2.17 2.17 0 002.17-2.17z" fill="#000"/></svg>
